X:185
T:Old Bourree,The. (p)1665.PLFD.185
M:4/4
L:1/4
Q:1/2=120
S:Playford, Dancing Master,2nd Supp. to 3rd Ed.,1665
O:England
H:166
Z:Chris Partington
K:F
B/A/|GABc|d>efd|gaba|g^fd:||:z/a/|a2b2|f3f|
d/e/fd/e/f|ccc>d|B/c/dB/c/d/e/|fdd>b|agg>^f|g3:|
